media/background-images/instagramm-logo.svg

<svg width="15" height="15" viewBox="0 0 15 15" fill="none" xmlns="http://www.w3.org/2000/svg">
<path d="M10.5608 0.913083V0.911719H10.4608H4.51148C2.51997 0.911719 0.9 2.53214 0.9 4.52411V10.4751C0.9 12.4669 2.51997 14.0874 4.51148 14.0874H10.4609C12.4523 14.0874 14.0723 12.4669 14.0723 10.4751V4.52411C14.0723 2.56559 12.5063 0.966242 10.5608 0.913083ZM13.1118 10.4751C13.1118 11.9371 11.9225 13.1267 10.4608 13.1267H4.51148C3.04981 13.1267 1.86049 11.9371 1.86049 10.4751V4.52411C1.86049 3.062 3.04981 1.87241 4.51148 1.87241H10.4609C11.9225 1.87241 13.1118 3.06199 13.1118 4.52411V10.4751Z" fill="white" stroke="white" stroke-width="0.2"/>
<path d="M7.48645 3.85117C5.47535 3.85117 3.83945 5.48753 3.83945 7.4991C3.83945 9.51067 5.47535 11.147 7.48645 11.147C9.49755 11.147 11.1334 9.51067 11.1334 7.4991C11.1334 5.48753 9.49755 3.85117 7.48645 3.85117ZM7.48645 10.1863C6.00529 10.1863 4.79994 8.98081 4.79994 7.4991C4.79994 6.01749 6.00529 4.81186 7.48645 4.81186C8.96771 4.81186 10.173 6.01748 10.173 7.4991C10.173 8.98082 8.96771 10.1863 7.48645 10.1863Z" fill="white" stroke="white" stroke-width="0.2"/>
<path d="M11.1184 2.69141C10.5404 2.69141 10.0703 3.16161 10.0703 3.7395C10.0703 4.31749 10.5404 4.7877 11.1184 4.7877C11.6964 4.7877 12.1666 4.31749 12.1666 3.7395C12.1666 3.16152 11.6964 2.69141 11.1184 2.69141ZM11.1184 4.02711C10.9599 4.02711 10.8308 3.89805 10.8308 3.7395C10.8308 3.58085 10.9599 3.45189 11.1184 3.45189C11.2771 3.45189 11.4061 3.58085 11.4061 3.7395C11.4061 3.89805 11.2771 4.02711 11.1184 4.02711Z" fill="white"/>
</svg>

<svg width="15" height="15" fill="none" xmlns="http://www.w3.org/2000/svg"><path d="M10.56.913V.912H4.512A3.616 3.616 0 00.9 4.524v5.951a3.616 3.616 0 003.611 3.612h5.95a3.616 3.616 0 003.611-3.612v-5.95A3.616 3.616 0 0010.561.912zm2.552 9.562a2.654 2.654 0 01-2.651 2.652H4.51a2.654 2.654 0 01-2.65-2.652v-5.95a2.654 2.654 0 012.65-2.653h5.95c1.461 0 2.65 1.19 2.65 2.652v5.951z" fill="#fff" stroke="#fff" stroke-width=".2"/><path d="M7.486 3.851A3.651 3.651 0 003.84 7.5a3.651 3.651 0 003.647 3.648A3.651 3.651 0 0011.134 7.5a3.651 3.651 0 00-3.647-3.648zm0 6.335A2.69 2.69 0 014.8 7.5a2.69 2.69 0 012.686-2.687A2.69 2.69 0 0110.173 7.5a2.69 2.69 0 01-2.687 2.687z" fill="#fff" stroke="#fff" stroke-width=".2"/><path d="M11.118 2.691a1.05 1.05 0 000 2.097 1.05 1.05 0 000-2.097zm0 1.336a.288.288 0 11.001-.576.288.288 0 010 .576z" fill="#fff"/></svg>
